images/icons/icon-heart-fill.svg

<svg width="16" height="16" fill="none" xmlns="http://www.w3.org/2000/svg"><path d="M13.8911 2.99447a3.66728 3.66728 0 0 0-1.1897-.79528 3.66685 3.66685 0 0 0-2.80717 0 3.66679 3.66679 0 0 0-1.18976.79528l-.70667.70667-.70667-.70667a3.66753 3.66753 0 0 0-5.18666 5.18667l.70666.70667L7.9978 14.0745l5.1867-5.18669.7066-.70667a3.66653 3.66653 0 0 0 .7953-1.18976 3.66628 3.66628 0 0 0 0-2.80714 3.66657 3.66657 0 0 0-.7953-1.18977Z" fill="#2D3440"/></svg>

<svg width="16" height="16" viewBox="0 0 16 16" fill="none" xmlns="http://www.w3.org/2000/svg">
<path d="M13.8911 2.99447C13.5506 2.65381 13.1463 2.38357 12.7014 2.19919C12.2564 2.01482 11.7795 1.91992 11.2978 1.91992C10.8161 1.91992 10.3392 2.01482 9.89423 2.19919C9.44926 2.38357 9.04497 2.65381 8.70447 2.99447L7.9978 3.70114L7.29113 2.99447C6.60334 2.30668 5.67049 1.92028 4.6978 1.92028C3.72511 1.92028 2.79226 2.30668 2.10447 2.99447C1.41667 3.68227 1.03027 4.61512 1.03027 5.58781C1.03027 6.56049 1.41667 7.49334 2.10447 8.18114L2.81113 8.88781L7.9978 14.0745L13.1845 8.88781L13.8911 8.18114C14.2318 7.84064 14.502 7.43635 14.6864 6.99138C14.8708 6.5464 14.9657 6.06946 14.9657 5.58781C14.9657 5.10615 14.8708 4.62921 14.6864 4.18424C14.502 3.73926 14.2318 3.33498 13.8911 2.99447Z" fill="#2D3440"/>
</svg>
